icons/actions/16/im-skype.svg

<svg xmlns="http://www.w3.org/2000/svg" viewBox="0 0 16 16">
  <defs id="defs3051">
    <style type="text/css" id="current-color-scheme">
      .ColorScheme-Text {
        color:#4d4d4d;
      }
      </style>
  </defs>
 <path style="fill:currentColor;fill-opacity:1;stroke:none" 
       d="M 5.3183594 2 C 3.4853594 2 2 3.4661075 2 5.2734375 C 2 5.8775775 2.1673613 6.4419744 2.4570312 6.9277344 C 2.3809314 7.2942244 2.3398438 7.67373 2.3398438 8.0625 C 2.3398438 11.17948 4.9033431 13.707031 8.0644531 13.707031 C 8.4228231 13.707031 8.7714181 13.673528 9.1113281 13.611328 C 9.5784481 13.859198 10.114121 14 10.681641 14 C 12.514911 14 14 12.534143 14 10.726562 C 14 10.204484 13.875007 9.7114475 13.654297 9.2734375 C 13.740697 8.8831875 13.787109 8.47823 13.787109 8.0625 C 13.787109 4.94556 11.225583 2.4199219 8.0644531 2.4199219 C 7.7308131 2.4199219 7.4041575 2.4485531 7.0859375 2.5019531 C 6.5742575 2.1843531 5.9675794 2 5.3183594 2 z M 8.0253906 4.0917969 C 8.5367006 4.0917969 8.9860381 4.150425 9.3613281 4.265625 C 9.7383681 4.381425 10.056791 4.5379888 10.306641 4.7304688 C 10.558341 4.9244687 10.745651 5.1323163 10.863281 5.3476562 C 10.982141 5.5656364 11.042969 5.7805144 11.042969 5.9902344 C 11.042969 6.1918144 10.962651 6.3757763 10.806641 6.5351562 C 10.649641 6.6959563 10.453943 6.7773438 10.220703 6.7773438 C 10.008833 6.7773438 9.8415525 6.7256 9.7265625 6.625 C 9.6192625 6.5318 9.5080956 6.3868844 9.3847656 6.1777344 C 9.2419656 5.9101744 9.0692838 5.6993413 8.8710938 5.5507812 C 8.6788036 5.4063713 8.3578356 5.3339844 7.9160156 5.3339844 C 7.5056756 5.3339844 7.1716681 5.4142387 6.9238281 5.5742188 C 6.6849581 5.7286287 6.5703125 5.9057744 6.5703125 6.1152344 C 6.5703125 6.2438444 6.6064937 6.3508094 6.6835938 6.4433594 C 6.7648937 6.5411594 6.8804306 6.6276887 7.0253906 6.6992188 C 7.1756906 6.7740187 7.3312381 6.83282 7.4863281 6.875 C 7.6455481 6.9186 7.9115836 6.9828164 8.2773438 7.0664062 C 8.7405836 7.1644062 9.1664787 7.2758812 9.5429688 7.3945312 C 9.9238786 7.5149313 10.253134 7.6616644 10.521484 7.8339844 C 10.795724 8.0099844 11.014079 8.2357894 11.167969 8.5058594 C 11.322539 8.7765294 11.400391 9.11151 11.400391 9.5 C 11.400311 9.96474 11.26589 10.389156 11 10.759766 C 10.73553 11.129556 10.342817 11.423109 9.8359375 11.630859 C 9.3340675 11.836569 8.7337181 11.939453 8.0488281 11.939453 C 7.2266681 11.939453 6.5358069 11.796855 5.9980469 11.515625 C 5.6135469 11.310565 5.2973306 11.033886 5.0566406 10.691406 C 4.8136006 10.345436 4.6894531 10.002935 4.6894531 9.671875 C 4.6894531 9.465025 4.7712975 9.2852219 4.9296875 9.1386719 C 5.0864775 8.9930819 5.2859006 8.9199219 5.5253906 8.9199219 C 5.7221406 8.9199219 5.8914169 8.97895 6.0292969 9.09375 C 6.1609469 9.20396 6.2746044 9.3658219 6.3652344 9.5761719 C 6.4668544 9.8052719 6.5785525 9.9980902 6.6953125 10.150391 C 6.8076925 10.296991 6.9676181 10.421248 7.1738281 10.517578 C 7.3815281 10.614578 7.6617594 10.662109 8.0058594 10.662109 C 8.4791794 10.662109 8.8664531 10.563746 9.1582031 10.367188 C 9.4431331 10.175587 9.5820312 9.9442694 9.5820312 9.6621094 C 9.5820312 9.4391994 9.5099581 9.2642931 9.3613281 9.1269531 C 9.2053381 8.9833531 8.99989 8.8716419 8.75 8.7949219 C 8.49003 8.7153219 8.1376619 8.6291825 7.7011719 8.5390625 C 7.1072319 8.4136625 6.6025819 8.2642031 6.2011719 8.0957031 C 5.7908319 7.9237031 5.4586769 7.6855387 5.2167969 7.3867188 C 4.9710769 7.0838287 4.8476562 6.7032094 4.8476562 6.2558594 C 4.8476562 5.8295394 4.9783181 5.4446714 5.2363281 5.1132812 C 5.4921481 4.7839813 5.8663263 4.5290156 6.3476562 4.3535156 C 6.8227464 4.1803056 7.3862606 4.0917969 8.0253906 4.0917969 z "
     class="ColorScheme-Text"
     />
</svg>

<svg xmlns="http://www.w3.org/2000/svg" viewBox="0 0 16 16">
  <defs id="defs3051">
    <style type="text/css" id="current-color-scheme">
      .ColorScheme-Text {
        color:#4d4d4d;
      }
      </style>
  </defs>
 <path style="fill:currentColor;fill-opacity:1;stroke:none" 
     d="m5.318 2c-1.833 0-3.318 1.466-3.318 3.273 0 .604.167 1.169.457 1.654-.076.366-.117.746-.117 1.135 0 3.117 2.563 5.645 5.725 5.645.358 0 .707-.034 1.047-.096.467.248 1 .389 1.57.389 1.833 0 3.318-1.466 3.318-3.273 0-.522-.125-1.015-.346-1.453.086-.39.133-.795.133-1.211 0-3.117-2.562-5.643-5.723-5.643-.334 0-.66.029-.979.082-.512-.318-1.118-.502-1.768-.502m2.707 2.092c.511 0 .961.059 1.336.174.377.116.695.272.945.465.252.194.439.402.557.617.119.218.18.433.18.643 0 .202-.08.386-.236.545-.157.161-.353.242-.586.242-.212 0-.379-.052-.494-.152-.107-.093-.218-.238-.342-.447-.143-.268-.315-.478-.514-.627-.192-.144-.513-.217-.955-.217-.41 0-.744.08-.992.24-.239.154-.354.332-.354.541 0 .129.036.236.113.328.081.098.197.184.342.256.15.075.306.134.461.176.159.044.425.108.791.191.463.098.889.209 1.266.328.381.12.71.267.979.439.274.176.493.402.646.672.155.271.232.606.232.994 0 .465-.135.889-.4 1.26-.264.37-.657.663-1.164.871-.502.206-1.102.309-1.787.309-.822 0-1.513-.143-2.051-.424-.385-.205-.701-.482-.941-.824-.243-.346-.367-.688-.367-1.02 0-.207.082-.387.24-.533.157-.146.356-.219.596-.219.197 0 .366.059.504.174.132.11.245.272.336.482.102.229.213.422.33.574.112.147.272.271.479.367.208.097.488.145.832.145.473 0 .861-.098 1.152-.295.285-.192.424-.423.424-.705 0-.223-.072-.398-.221-.535-.156-.144-.361-.255-.611-.332-.26-.08-.612-.166-1.049-.256-.594-.125-1.099-.275-1.5-.443-.41-.172-.742-.41-.984-.709-.246-.303-.369-.684-.369-1.131 0-.426.131-.811.389-1.143.256-.329.63-.584 1.111-.76.475-.173 1.039-.262 1.678-.262"
     class="ColorScheme-Text"
     />
</svg>
